icons/insights-24.svg

<svg width="24" height="24" viewBox="0 0 24 24" xmlns="http://www.w3.org/2000/svg">
  <path fill-rule="evenodd" clip-rule="evenodd" d="M11.75 3.5C12.1642 3.5 12.5 3.83579 12.5 4.25V19.75C12.5 20.1642 12.1642 20.5 11.75 20.5C11.3358 20.5 11 20.1642 11 19.75V4.25C11 3.83579 11.3358 3.5 11.75 3.5ZM18.25 7.125C18.6642 7.125 19 7.46079 19 7.875V19.75C19 20.1642 18.6642 20.5 18.25 20.5C17.8358 20.5 17.5 20.1642 17.5 19.75V7.875C17.5 7.46079 17.8358 7.125 18.25 7.125ZM5.25 11C5.66421 11 6 11.3358 6 11.75V19.75C6 20.1642 5.66421 20.5 5.25 20.5C4.83579 20.5 4.5 20.1642 4.5 19.75V11.75C4.5 11.3358 4.83579 11 5.25 11Z"/>
</svg>

<svg xmlns="http://www.w3.org/2000/svg" width="24" height="24" viewBox="0 0 24 24"><path fill-rule="evenodd" d="M11.75 3.5a.75.75 0 01.75.75v15.5a.75.75 0 01-1.5 0V4.25a.75.75 0 01.75-.75zm6.5 3.625a.75.75 0 01.75.75V19.75a.75.75 0 01-1.5 0V7.875a.75.75 0 01.75-.75zM5.25 11a.75.75 0 01.75.75v8a.75.75 0 01-1.5 0v-8a.75.75 0 01.75-.75z"/></svg>
